X:181
T: ADE JETZT MUSS ICH SCHEIDEN
N: E0767
O: Europa, Mitteleuropa, Deutschland, Schlesien
R: Abschieds - Lied, Liebe
M: 4/4
L: 1/8
K: F
C2 | F2F2c2c2 | A2c2F2
A2 | G2B2E2G2 | F4z2
C2 | F2F2c2c2 | A2c2F2
A2 | G2B2E2G2 | F4z4
A4F2A2 | c2BAG4
A4F2A2 | c2BAG2
C2 | F2F2c2c2 | A2c2F2
A2 | G2B2E2G2 | F4z2

